X:1
T:Partition sans titre
C:Compositeur / Arrangeur
L:1/8
M:4/4
I:linebreak $
K:D
V:1 treble nm="Violon" snm="Vln."
V:1
"D" D2 FA dfed |"A" c2 Ac"G" B2 GB |"D" A3 A FAdf |"G" g2 f2"A" ec"D" d2 ::"D" f a2 a fdef | %5
[M:2/4] g"G" b2 b |[M:4/4]"D" f a2 a fdef |"G" g2 f2"A" ec"D" d2 ::"D" DFAF DFAF |"G" DGBG DGBG |1 %10
"D" DFAF DFAF |"A" A,CEC A,CEC :|2"A" ABAG"D" FAdf |"G" g2 f2"A" ec"D" d2 |] %14
